www/assets/icons/videocam_off.svg

<svg xmlns="http://www.w3.org/2000/svg" width="24" height="24" viewBox="0 0 24 24" fill='currentColor'><path d="m21.5 7-4 4V7.5c0-.55-.45-1-1-1h-6.18L21.5 17.68zM3.77 2.5 2.5 3.77 5.23 6.5H4.5c-.55 0-1 .45-1 1v10c0 .55.45 1 1 1h12c.21 0 .39-.08.54-.18l3.19 3.18 1.27-1.27z"/></svg>

<svg width="24" height="24" viewBox="0 0 24 24" xmlns="http://www.w3.org/2000/svg" fill='currentColor'><path d="M21.5 7L17.5 11V7.5C17.5 6.95 17.05 6.5 16.5 6.5H10.32L21.5 17.68V7ZM3.77 2.5L2.5 3.77L5.23 6.5H4.5C3.95 6.5 3.5 6.95 3.5 7.5V17.5C3.5 18.05 3.95 18.5 4.5 18.5H16.5C16.71 18.5 16.89 18.42 17.04 18.32L20.23 21.5L21.5 20.23L3.77 2.5Z"/></svg>
